assets/svg/icon-large-lightbulb-circle-blue.svg

<?xml version="1.0" encoding="UTF-8" standalone="no"?>
<svg width="64px" height="64px" viewBox="0 0 64 64" version="1.1" xmlns="http://www.w3.org/2000/svg" xmlns:xlink="http://www.w3.org/1999/xlink">
    <!-- Generator: Sketch 3.8.3 (29802) - http://www.bohemiancoding.com/sketch -->
    <title>blue/icon-large-lightbulb-circle-blue</title>
    <desc>Created with Sketch.</desc>
    <defs></defs>
    <g id="blue,-base" stroke="none" stroke-width="1" fill="none" fill-rule="evenodd">
        <g id="icons,-large-detailed-(blue)" transform="translate(-803.000000, -414.000000)" fill="#1055FF">
            <g id="blue/icon-large-lightbulb-circle-blue" transform="translate(803.000000, 414.000000)">
                <g id="Shape">
                    <g id="Page-1">
                        <g id="Stratum-2016_02_16-kg-v1.2">
                            <g id="focus">
                                <g id="energy">
                                    <path d="M32,64 C49.673112,64 64,49.673112 64,32 C64,14.326888 49.673112,0 32,0 C14.326888,0 0,14.326888 0,32 C0,49.673112 14.326888,64 32,64 L32,64 Z M32,62.4 C48.7894563,62.4 62.4,48.7894563 62.4,32 C62.4,15.2105437 48.7894563,1.6 32,1.6 C15.2105436,1.6 1.6,15.2105437 1.6,32 C1.6,48.7894563 15.2105436,62.4 32,62.4 L32,62.4 Z M31.4189101,12.812193 C24.0817542,13.1012506 18.0217125,19.0672909 17.6217029,26.3947656 C17.3904472,30.6228158 19.0160072,34.7180562 22.0817061,37.6299837 C22.8952672,38.4028867 23.501011,39.4731803 23.8822702,40.8106568 C24.0912597,41.5426099 24.4188717,42.2296421 24.8166026,42.8800862 C24.3313696,43.1552117 23.9994606,43.6703718 23.9994606,44.2668458 L23.9994606,50.6667326 C23.9994606,51.5490086 24.7171862,52.2667043 25.599499,52.2667043 L26.1328453,52.2667043 L26.1328453,52.8000283 C26.1328453,53.6823043 26.8505709,54.4 27.7328838,54.7199219 L36.2664227,54.7199219 C37.1487355,54.4 37.8664611,53.6823043 37.8664611,52.8000283 L37.8664611,52.2667043 L38.3998074,52.2667043 C39.2821202,52.2667043 39.9998459,51.5490086 39.9998459,50.6667326 L39.9998459,44.2668458 C39.9998459,43.6784446 39.6770517,43.1689483 39.2026912,42.8910235 C39.5999664,42.2424022 39.9070702,41.5458 40.1170362,40.8111776 C40.4988162,39.471097 41.0998723,38.4054909 41.9030166,37.6440461 C44.8030866,34.8961779 46.4,31.1873893 46.4,27.2004805 C46.4,23.2463838 44.8296496,19.5594698 41.9785394,16.8188931 C39.1295125,14.0788373 35.3789013,12.6517792 31.4189101,12.812193 L31.4189101,12.812193 Z M35.9519531,53.1679688 L28.0480469,53.1679688 C27.5200195,53.1679688 27.5200195,53.1679688 27.5200195,52.8000283 L27.5200195,52.2667043 L36.640039,52.2667043 L36.640039,52.8000283 C36.640039,52.8000283 36.7997688,53.1679688 35.9519531,53.1679688 L35.9519531,53.1679688 Z M38.1150698,50.7200859 L25.9009154,50.7200859 C25.620113,50.7200859 25.3919922,50.5013437 25.3919922,50.2320859 L25.3919922,44.3760859 C25.3919922,44.1068282 25.620113,43.8880859 25.9009154,43.8880859 L28.4455309,43.8880859 L29.463377,43.8880859 L34.552608,43.8880859 L35.5704542,43.8880859 L38.1150698,43.8880859 C38.3958722,43.8880859 38.623993,44.1068282 38.623993,44.3760859 L38.623993,50.2320859 C38.623993,50.5013437 38.3958722,50.7200859 38.1150698,50.7200859 L38.1150698,50.7200859 Z M29.3329224,29.550439 C29.3329224,29.2061742 29.5995954,29.0806557 29.6813683,29.0504478 C29.7626203,29.0197192 30.0475229,28.9421165 30.2709659,29.2030493 L30.7428522,29.7540813 C31.0574432,30.1202206 31.4933912,30.3321962 31.997049,30.3118838 C32.4798731,30.299905 32.9267589,30.0743882 33.2231203,29.6921032 L33.7116736,29.0608643 C33.9273038,28.7811818 34.2200192,28.8520138 34.3054379,28.8827424 C34.3903358,28.9113878 34.6663842,29.0332606 34.6663842,29.3874211 L34.6663842,42.0320312 L29.3329224,42.0320312 L29.3329224,29.550439 L29.3329224,29.550439 Z M38.8282872,40.0646221 C38.6162562,40.8078909 38.2724424,41.4974958 37.8338354,42.133437 L35.5947826,42.133437 L35.5947826,29.345904 C35.5947826,28.6763603 35.1855163,28.1041136 34.5525579,27.8879538 C33.9180949,27.6712925 33.2455139,27.8729078 32.8357461,28.4025245 L32.3657922,29.0098784 C32.2704973,29.1327534 32.1270534,29.2054755 31.9715723,29.2094877 C31.8206051,29.2084846 31.6696381,29.1472978 31.5693277,29.0304411 L31.1149218,28.500323 C30.691612,28.0048104 30.0215389,27.8332869 29.4106486,28.0579728 C28.799257,28.2841632 28.4045357,28.8513947 28.4045357,29.5028832 L28.4045357,42.133437 L26.1243558,42.133437 C25.7056854,41.489973 25.3796766,40.7973587 25.1710312,40.0641206 C24.752737,38.5971427 24.0746389,37.4110222 23.1562974,36.53886 C20.4233416,33.9419331 18.9738568,30.2902867 19.1794931,26.5202792 C19.5365979,19.9878394 24.9398158,14.6686029 31.480553,14.410816 C35.0119794,14.2673781 38.356327,15.5402635 40.8971885,17.9832203 C43.4395547,20.4271803 44.8393858,23.7147154 44.8393858,27.2399758 C44.8393858,30.7943253 43.4154802,34.1009184 40.8299805,36.5513982 C39.920667,37.4130283 39.247083,38.5951366 38.8282872,40.0646221 L38.8282872,40.0646221 Z" id="Shape"></path>
                                </g>
                            </g>
                        </g>
                    </g>
                </g>
            </g>
        </g>
    </g>
</svg>

<svg width="64" height="64" viewBox="0 0 64 64" xmlns="http://www.w3.org/2000/svg"><title>blue/icon-large-lightbulb-circle-blue</title><path d="M32 64c17.673 0 32-14.327 32-32C64 14.327 49.673 0 32 0 14.327 0 0 14.327 0 32c0 17.673 14.327 32 32 32zm0-1.6c16.79 0 30.4-13.61 30.4-30.4S48.79 1.6 32 1.6 1.6 15.21 1.6 32 15.21 62.4 32 62.4zm-.581-49.588c-7.337.29-13.397 6.255-13.797 13.583a14.386 14.386 0 0 0 4.46 11.235c.813.773 1.419 1.843 1.8 3.18.21.733.537 1.42.935 2.07-.486.275-.818.79-.818 1.387v6.4c0 .882.718 1.6 1.6 1.6h.534v.533c0 .882.718 1.6 1.6 1.92h8.533c.883-.32 1.6-1.038 1.6-1.92v-.533h.534c.882 0 1.6-.718 1.6-1.6v-6.4c0-.589-.323-1.098-.797-1.376a8.388 8.388 0 0 0 .914-2.08c.382-1.34.983-2.406 1.786-3.167 2.9-2.748 4.497-6.457 4.497-10.444 0-3.954-1.57-7.64-4.421-10.381a14.272 14.272 0 0 0-10.56-4.007zm4.533 40.356h-7.904c-.528 0-.528 0-.528-.368v-.533h9.12v.533s.16.368-.688.368zm2.163-2.448H25.901a.5.5 0 0 1-.509-.488v-5.856a.5.5 0 0 1 .509-.488H38.115a.5.5 0 0 1 .509.488v5.856a.5.5 0 0 1-.509.488zm-8.782-21.17a.52.52 0 0 1 .348-.5.52.52 0 0 1 .59.153l.472.551c.314.366.75.578 1.254.558.483-.012.93-.238 1.226-.62l.489-.631a.515.515 0 0 1 .593-.178c.085.028.361.15.361.504v12.645h-5.333V29.55zm9.495 10.515a7.052 7.052 0 0 1-.994 2.068h-2.24V29.346c0-.67-.408-1.242-1.041-1.458a1.52 1.52 0 0 0-1.717.515l-.47.607a.513.513 0 0 1-.797.02l-.454-.53a1.528 1.528 0 0 0-1.704-.442 1.527 1.527 0 0 0-1.006 1.445v12.63h-2.28a7.621 7.621 0 0 1-.954-2.069c-.418-1.467-1.096-2.653-2.015-3.525A12.833 12.833 0 0 1 19.18 26.52c.358-6.532 5.76-11.851 12.302-12.11a12.728 12.728 0 0 1 9.416 3.573 12.731 12.731 0 0 1 3.942 9.257c0 3.554-1.424 6.86-4.009 9.311-.91.862-1.583 2.044-2.002 3.514z" fill="#1055FF" fill-rule="evenodd"/></svg>
